icons/1_Primary/Framasoft.svg

<svg width="1024" height="1024" fill="none" xmlns="http://www.w3.org/2000/svg"><g clip-path="url(#a)"><path d="M512 1024c282.77 0 512-229.23 512-512S794.77 0 512 0 0 229.23 0 512s229.23 512 512 512Z" fill="#8C72BD"/><path d="m270.01 255 .102.03c.093-.003.17-.03.265-.03h-.367Zm.102.03c-5.33.158-8.119 4.81-4.145 8.423 181.92 86.368 155.09 167.96 178.62 261.68 6.248 25.358 48.514 222.72 270.87 241.83 8.453.735 11.026-9.188 2.206-11.393-181.56-48.514-225.29-365.69-98.497-377.45 17.64-1.47 23.154 5.88 36.753 10.29 4.891 1.63 10.808 2.728 16.677 3.573 4.64 3.692 7.558 11.857 7.212 17.743-17.641-2.205-24.624-8.086-40.795-16.539 0 0 11.026 13.231 22.052 20.95 19.846 15.067 37.855 33.076 48.88 50.35 5.513 8.453 6.983 9.557 7.35 5.882a121.278 121.278 0 0 0-19.112-68.728c-1.906-2.86-2.427-5.95-2.774-8.409.238-.03.73-.009.937-.045 11.761-22.051-9.188-47.043-26.829-65.419 19.111-12.496 80.855-26.094 88.206-29.402 4.778-1.838 2.573-9.188-1.47-9.923-28.298 1.837-95.556 7.35-126.06 19.112-53.29-32.342-122.75-7.35-158.03 47.778-36.005-52.54-86.71-67.984-202.04-100.31l-.011.007Zm298.69 49.218c27.197 0 26.462 11.393-8.82 23.521a138.19 138.19 0 0 0-87.471 80.856c-4.043-6.248 15.804-94.087 96.292-104.38l-.001.003Zm-261.88 58.813a51.922 51.922 0 0 0-36.72 15.21 51.92 51.92 0 0 0-15.209 36.72 51.927 51.927 0 0 0 32.057 47.977 51.93 51.93 0 1 0 19.873-99.907h-.001Zm59.191 141.24a40.134 40.134 0 0 0-28.375 11.753 40.134 40.134 0 0 0-11.753 28.375 40.12 40.12 0 0 0 11.754 28.374 40.137 40.137 0 0 0 28.374 11.752 40.126 40.126 0 0 0 0-80.254Zm357.2 105.67a24.548 24.548 0 1 0 0 49.096 24.548 24.548 0 0 0 0-49.096Zm-307.89 15.494a29.267 29.267 0 0 0-29.269 29.27 29.267 29.267 0 0 0 18.069 27.042 29.267 29.267 0 0 0 38.243-15.841 29.267 29.267 0 0 0-15.841-38.243 29.267 29.267 0 0 0-11.201-2.228h-.001Zm292.59 56.688a19.824 19.824 0 0 0-14.02 5.808 19.824 19.824 0 0 0 0 28.04 19.829 19.829 0 0 0 33.847-14.02 19.827 19.827 0 0 0-19.827-19.828Z" fill="#fff"/></g><defs><clipPath id="a"><path fill="#fff" d="M0 0h1024v1024H0z"/></clipPath></defs></svg>

<svg width="1024" height="1024" viewBox="0 0 1024 1024" fill="none" xmlns="http://www.w3.org/2000/svg">
<g clip-path="url(#clip0_2_2229)">
<path d="M512 1024C794.77 1024 1024 794.77 1024 512C1024 229.23 794.77 0 512 0C229.23 0 0 229.23 0 512C0 794.77 229.23 1024 512 1024Z" fill="#8C72BD"/>
<path d="M270.01 255L270.112 255.03C270.205 255.027 270.282 255 270.377 255H270.01ZM270.112 255.03C264.782 255.188 261.993 259.84 265.967 263.453C447.887 349.821 421.057 431.413 444.587 525.133C450.835 550.491 493.101 747.853 715.457 766.963C723.91 767.698 726.483 757.775 717.663 755.57C536.103 707.056 492.373 389.88 619.166 378.12C636.806 376.65 642.32 384 655.919 388.41C660.81 390.04 666.727 391.138 672.596 391.983C677.236 395.675 680.154 403.84 679.808 409.726C662.167 407.521 655.184 401.64 639.013 393.187C639.013 393.187 650.039 406.418 661.065 414.137C680.911 429.204 698.92 447.213 709.945 464.487C715.458 472.94 716.928 474.044 717.295 470.369C717.958 446.062 711.3 422.116 698.183 401.641C696.277 398.781 695.756 395.691 695.409 393.232C695.647 393.202 696.139 393.223 696.346 393.187C708.107 371.136 687.158 346.144 669.517 327.768C688.628 315.272 750.372 301.674 757.723 298.366C762.501 296.528 760.296 289.178 756.253 288.443C727.955 290.28 660.697 295.793 630.193 307.555C576.903 275.213 507.443 300.205 472.163 355.333C436.158 302.793 385.453 287.349 270.123 255.023L270.112 255.03ZM568.802 304.248C595.999 304.248 595.264 315.641 559.982 327.769C540.295 333.87 522.222 344.298 507.087 358.288C491.952 372.279 480.139 389.478 472.511 408.625C468.468 402.377 488.315 314.538 568.803 304.245L568.802 304.248ZM306.922 363.061C300.103 363.061 293.35 364.404 287.05 367.014C280.749 369.624 275.025 373.449 270.202 378.271C265.38 383.093 261.555 388.818 258.946 395.118C256.336 401.419 254.993 408.171 254.993 414.991C254.993 421.811 256.336 428.563 258.946 434.864C261.556 441.164 265.381 446.889 270.203 451.711C275.025 456.534 280.75 460.359 287.05 462.968C293.351 465.578 300.104 466.921 306.923 466.921C313.743 466.921 320.496 465.578 326.796 462.968C333.097 460.359 338.821 456.534 343.644 451.711C348.466 446.889 352.291 441.164 354.9 434.864C357.51 428.563 358.853 421.811 358.853 414.991C358.853 408.171 357.51 401.419 354.9 395.118C352.291 388.818 348.466 383.093 343.644 378.271C338.821 373.448 333.097 369.623 326.796 367.014C320.496 364.404 313.743 363.061 306.923 363.061H306.922ZM366.113 504.301C360.843 504.301 355.625 505.339 350.757 507.355C345.888 509.372 341.464 512.328 337.738 516.054C334.012 519.78 331.056 524.204 329.039 529.073C327.023 533.941 325.985 539.159 325.985 544.429C325.985 549.699 327.023 554.916 329.04 559.785C331.057 564.653 334.013 569.077 337.739 572.803C341.465 576.529 345.889 579.484 350.757 581.501C355.626 583.517 360.844 584.555 366.113 584.555C376.755 584.555 386.961 580.327 394.486 572.802C402.011 565.277 406.239 555.071 406.239 544.429C406.239 539.159 405.202 533.941 403.185 529.073C401.169 524.205 398.213 519.781 394.487 516.055C390.761 512.328 386.337 509.373 381.469 507.356C376.601 505.339 371.383 504.301 366.113 504.301ZM723.313 609.971C716.803 609.971 710.559 612.557 705.955 617.161C701.352 621.765 698.765 628.008 698.765 634.519C698.765 637.743 699.4 640.935 700.634 643.913C701.867 646.891 703.676 649.598 705.955 651.877C708.235 654.157 710.941 655.965 713.919 657.198C716.897 658.432 720.089 659.067 723.313 659.067C726.537 659.067 729.729 658.432 732.707 657.198C735.686 655.965 738.392 654.157 740.671 651.877C742.951 649.598 744.759 646.891 745.993 643.913C747.226 640.935 747.861 637.743 747.861 634.519C747.861 628.008 745.275 621.765 740.671 617.161C736.068 612.557 729.824 609.971 723.313 609.971ZM415.423 625.465C411.579 625.465 407.773 626.222 404.222 627.693C400.671 629.164 397.444 631.32 394.727 634.038C392.009 636.756 389.853 639.983 388.382 643.534C386.911 647.085 386.154 650.891 386.154 654.735C386.154 658.579 386.911 662.385 388.382 665.936C389.853 669.488 392.009 672.714 394.727 675.432C397.445 678.15 400.672 680.306 404.223 681.777C407.774 683.248 411.58 684.005 415.424 684.005C419.268 684.005 423.074 683.248 426.625 681.777C430.177 680.306 433.403 678.15 436.121 675.432C438.839 672.714 440.995 669.488 442.466 665.936C443.937 662.385 444.694 658.579 444.694 654.735C444.694 650.891 443.937 647.085 442.466 643.534C440.995 639.982 438.839 636.756 436.121 634.038C433.403 631.32 430.177 629.164 426.625 627.693C423.074 626.222 419.268 625.465 415.424 625.465H415.423ZM708.013 682.153C702.754 682.153 697.711 684.242 693.993 687.961C690.274 691.679 688.185 696.722 688.185 701.981C688.185 707.24 690.275 712.283 693.993 716.001C697.711 719.719 702.755 721.808 708.013 721.808C713.272 721.808 718.314 719.719 722.033 716C725.751 712.282 727.84 707.239 727.84 701.981C727.84 696.722 725.751 691.679 722.033 687.961C718.315 684.242 713.272 682.153 708.013 682.153Z" fill="white"/>
</g>
<defs>
<clipPath id="clip0_2_2229">
<rect width="1024" height="1024" fill="white"/>
</clipPath>
</defs>
</svg>
